X:1     
B:Broadwood, L, 1893, English County Songs, London, Leadenhall Press
S:Mrs Squarey, Downtown and Heywood Sumner
Z: Lucy Broadwood
T:The Jolly Ploughboy
F: http://www.folkinfo.org/songs
T:The Jolly Ploughboy     %Tune name
C:Composer:     %Tune composer
N:Remarks:     %Tune infos
Q:1/4=120     %Tempo
V:1     %
%!STAVE 0 'Song' @
%!INSTR 'Piano' 4 0 @
M:6/8     %Meter
L:1/8     %
K:G
D/D/ |G G D G G D |A B (A/G/) (F/E/ D)                         
w:There were two lov-ing bro-thers, two bre-thren were_ born__ 
D |G3/2 A/ B d3/2 c/ B | A3 z2
w:Two bre-thren whose trades we still keep; 
      A |A B c d B G |d B G E2                 
w:      The one was a plough-man, a plant-er of corn,                        
E |D G d c A F |G3- G2  |]
w:The o-ther a ten-der of sheep.